img/rectangle-1.svg

<svg fill="none" height="7" viewBox="0 0 40 7" width="40" xmlns="http://www.w3.org/2000/svg"><path d="m1.36117.474037c-.34719-.05555-.661707.212645-.661707.564253v4.46414c0 .3516.314517.6198.661707.56425l7.35509-1.17682c.02985-.00477.06004-.00717.09028-.00717h28.65406c.8904 0 1.6123-.72187 1.6123-1.61233 0-.89047-.7219-1.61233-1.6123-1.61233h-28.65406c-.03024 0-.06043-.0024-.09028-.00718z" fill="#e6e6e6"/></svg>

<svg width="40" height="7" viewBox="0 0 40 7" fill="none" xmlns="http://www.w3.org/2000/svg">
<path d="M1.36117 0.474037C1.01398 0.418487 0.699463 0.686682 0.699463 1.03829L0.699463 5.50243C0.699463 5.85403 1.01398 6.12223 1.36117 6.06668L8.71626 4.88986C8.74611 4.88509 8.7763 4.88269 8.80654 4.88269L37.4606 4.88269C38.351 4.88269 39.0729 4.16082 39.0729 3.27036C39.0729 2.37989 38.351 1.65803 37.4606 1.65803L8.80654 1.65803C8.7763 1.65803 8.74611 1.65563 8.71626 1.65085L1.36117 0.474037Z" fill="#E6E6E6"/>
</svg>
